X:2350
L:1/4
M:4/4
K:D
 d/e/ |: f f f/e/ d/e/ | f f f d/e/ | f f g f | f e e c/d/ | e e/f/ e/d/ c/d/ | e e/f/ e c/d/ | 
 e g f e |1 d2 d d/e/ :|2 d2 d B |: A3 d/e/ | f e d c | B3 e/f/ | g f e d | c3/2 B/ c d |1 
 e3/2 f/ e c | d3/2 c/ d e | f d c B :|

